X:478
T:Lapp-Nils Klarinettpolska
R:Polska
S:Efter Lapp-Nils
O:Jämtland
Z:Från Richard Robinson [[richard@beulah.demon.co.uk]] tradtunes 2001-01-31
D:Legstulaget
M:3/4
K:GDor
|:g2 (3^fgf d2 | B2 (3BAG A2- | Ad (3cec (3cec| c>e (3dfd (3dfd|\
d>c B2- B>G| (3cdc (3BAG ^F>A| G2 G4:|
|:d>g g2 (3{ga}g^fg| a>^f d2 (3{de}dcd| g2 (5gag^fg a>f| d>e (3c=Bc d>c|
B2 (3BAG A2- | Ad (3cec (3cec| c>e (3dfd (3dfd|\
d>c B2- B>G| (3cdc (3BAG ^F>A| G2 G4 :|
(:musicend:)

Och så en variant skriven i 9/8:
(:music:)
